X:38
T:Troika
O:russia
C:- Rusl -
M:2/4
L:1/8
Q:1/4=178
K:Am
V:1
"Am" ze2 d|c2 "E" B2 |"Am" A2 "E7" ^G2 |1 "Am" A2 E2 :|2
"Am" A4 ||"G7" zg2 f|"C" f2 e2 |"E7" ze2 d|
"Am" d2 c2 |cB cd |e2 A2 |"E7" c2 B2 |
"Am" A4 || |:Ac Ac |Ac Ac |Ac Ac |
Ac Ac |"E7" Bd Bd |Bd Bd |"Am" c2 "E7" B2 "E7" |
"Am" A4 :|
V:2          %Onderterts
"Am" zc2 B|A2 "E" E2 |"Am" D2 "E7" E2 |1 "Am" E2 C2 :|2
"Am" C4 ||"G7" zB,2 D|"C" D2 C2 |"E7" z^G2 B|
"Am" B2 A2 |A^G AB |c2 c2 |"E7" A2 E2 |
"Am" C4 || |:A^G F^G |A^G FE |_EC B,C |
_EC B,A, |"E7" B,C _EE |F^G AB |"Am" cB A"E7" ^G |
A"Am" E A2 :|
